X: 40674
T: Top The Candle
R: slip jig
M: 9/8
K: Dmajor
DED A2F F2D|C2E E2F G2E|DED A2D F2D|A,2D D2F ED2:|
f2g/f/ e2d c2A|B2e e2d c2A|B2c/B/ A2G FD2|A,2D D2F ED2|
f2g/f/ e2d c2A|B2e e2d c2A|B3 A2G FE2|DF2 EF2 F2E||

